brandFactory_export/2.Regular/Blog_2Regular.svg

<?xml version="1.0" encoding="UTF-8"?>
<svg width="24px" height="24px" viewBox="0 0 24 24" version="1.1" xmlns="http://www.w3.org/2000/svg" xmlns:xlink="http://www.w3.org/1999/xlink">
    <title>2.Regular/Blog_2Regular</title>
    <g id="Symbols" stroke="none" stroke-width="1" fill="none" fill-rule="evenodd">
        <g id="2.Regular/Blog_2Regular" fill="#5CB615" fill-rule="nonzero">
            <path d="M16.0436975,0.00336134454 C18.8605042,0.00336134454 20.5411765,1.71092437 20.5411765,4.56806723 L20.5404888,9.31911119 C21.424873,8.95299182 22.4111811,9.22384509 23.0252101,9.83529412 C23.4588235,10.2756303 23.7042017,10.8672269 23.707563,11.4857143 C23.7042017,12.0840336 23.4655462,12.6352941 23.0151261,13.0789916 C22.8574569,13.2352897 21.7899323,14.1901579 20.5358498,15.3060634 C20.5399969,15.328876 20.5411765,15.3517019 20.5411765,15.3747899 L20.5411765,19.102521 C20.5411765,20.4705882 20.1647059,21.5630252 19.4252101,22.3462185 C18.6386555,23.1764706 17.4991597,23.6 16.0436975,23.6 L4.50084034,23.6 C3.04537815,23.6 1.90588235,23.1798319 1.11932773,22.3462185 C0.379831932,21.5630252 0.00336134414,20.4705882 0.00336134414,19.102521 L0.00336134414,4.56806723 C0.00336134414,1.71092437 1.68403361,0.00336134454 4.50084034,0.00336134454 L16.0436975,0.00336134454 Z M16.0436975,1.34789916 L4.50084034,1.34789916 C3.43529412,1.34789916 2.62857143,1.63697479 2.10420168,2.20840336 C1.60336134,2.75294118 1.34789916,3.54621849 1.34789916,4.56806723 L1.34789916,19.102521 C1.34789916,21.1932773 2.41008403,22.2554622 4.50084034,22.2554622 L16.0436975,22.2554622 C18.1344538,22.2554622 19.1966387,21.1932773 19.1966387,19.102521 L19.1967721,16.4960668 C17.7632662,17.7686306 16.4076963,18.9683441 16.107563,19.2336134 C16.0403361,19.2941176 15.9596639,19.3411765 15.8722689,19.3680672 L12.4268908,20.507563 C12.3596639,20.5277311 12.2890756,20.5411765 12.2184874,20.5411765 C11.8487395,20.5411765 11.5462185,20.2420168 11.5462185,19.8689076 C11.5462185,19.794958 11.5563025,19.7243697 11.5798319,19.6537815 L11.9227983,18.6280168 L4.56806723,18.6285714 C4.19831933,18.6285714 3.89579832,18.3260504 3.89579832,17.9563025 C3.89579832,17.5865546 4.19831933,17.2840336 4.56806723,17.2840336 L12.3737983,17.2840168 L12.7327731,16.2151261 C12.7697479,16.1042017 12.8369748,16.0033613 12.9243697,15.9260504 C13.4081422,15.4990823 13.9392107,15.0300344 14.4850691,14.5475169 L4.56806723,14.5478992 C4.19831933,14.5478992 3.89579832,14.2453782 3.89579832,13.8756303 C3.89579832,13.5058824 4.19831933,13.2033613 4.56806723,13.2033613 L16.0048396,13.2029944 C17.2988395,12.0571684 18.5076857,10.9837415 19.1975765,10.3645166 L19.1966387,4.56806723 C19.1966387,3.54621849 18.9411765,2.75294118 18.4403361,2.20840336 C17.9159664,1.63697479 17.1092437,1.34789916 16.0436975,1.34789916 Z M20.7361345,10.7865546 C20.3630252,11.1563025 15.0487395,15.8487395 13.9529412,16.8168067 L13.2840336,18.810084 L15.3210084,18.1378151 C17.9260504,15.8319328 21.805042,12.3932773 22.0773109,12.1243697 C22.2689076,11.9327731 22.3697479,11.7176471 22.3697479,11.4823529 C22.3663866,11.2235294 22.2621849,10.9747899 22.0806723,10.7865546 C21.892437,10.5983193 21.287395,10.2352941 20.7361345,10.7865546 Z M16.0436975,9.12268908 C16.4134454,9.12268908 16.7159664,9.42521008 16.7159664,9.79495798 C16.7159664,10.1647059 16.4134454,10.4672269 16.0436975,10.4672269 L4.56806723,10.4672269 C4.19831933,10.4672269 3.89579832,10.1647059 3.89579832,9.79495798 C3.89579832,9.42521008 4.19831933,9.12268908 4.56806723,9.12268908 L16.0436975,9.12268908 Z M16.0436975,5.04201681 C16.4134454,5.04201681 16.7159664,5.34453782 16.7159664,5.71428571 C16.7159664,6.08403361 16.4134454,6.38655462 16.0436975,6.38655462 L4.56806723,6.38655462 C4.19831933,6.38655462 3.89579832,6.08403361 3.89579832,5.71428571 C3.89579832,5.34453782 4.19831933,5.04201681 4.56806723,5.04201681 L16.0436975,5.04201681 Z" id="Blog_2Regular"></path>
        </g>
    </g>
</svg>

<svg width="24" height="24" viewBox="0 0 24 24" xmlns="http://www.w3.org/2000/svg"><path d="M16.044.003c2.817 0 4.497 1.708 4.497 4.565V9.32c.884-.366 1.87-.095 2.484.516a2.37 2.37 0 01.683 1.65c-.004.599-.242 1.15-.693 1.594-.158.156-1.225 1.111-2.48 2.227a.382.382 0 01.006.069v3.728c0 1.368-.376 2.46-1.116 3.243-.786.83-1.926 1.254-3.381 1.254H4.5c-1.456 0-2.595-.42-3.382-1.254-.74-.783-1.116-1.875-1.116-3.243V4.568C.003 1.711 1.684.003 4.501.003h11.543zm0 1.345H4.5c-1.066 0-1.872.289-2.397.86-.5.545-.756 1.338-.756 2.36v14.535c0 2.09 1.062 3.152 3.153 3.152h11.543c2.09 0 3.153-1.062 3.153-3.152v-2.607c-1.434 1.273-2.79 2.472-3.09 2.738a.632.632 0 01-.235.134l-3.445 1.14a.672.672 0 01-.847-.854l.343-1.026H4.568a.674.674 0 01-.672-.672c0-.37.302-.672.672-.672h7.806l.359-1.069a.673.673 0 01.191-.289l1.561-1.378H4.568a.674.674 0 01-.672-.672c0-.37.302-.673.672-.673h11.437a761.544 761.544 0 003.193-2.838l-.001-5.797c0-1.022-.256-1.815-.757-2.36-.524-.571-1.33-.86-2.396-.86zm4.692 9.439c-.373.37-5.687 5.062-6.783 6.03l-.669 1.993 2.037-.672c2.605-2.306 6.484-5.745 6.756-6.014.192-.191.293-.406.293-.642a1.024 1.024 0 00-.29-.695c-.188-.189-.793-.552-1.344 0zm-4.692-1.664c.37 0 .672.302.672.672 0 .37-.303.672-.672.672H4.568a.674.674 0 01-.672-.672c0-.37.302-.672.672-.672h11.476zm0-4.081c.37 0 .672.303.672.672 0 .37-.303.673-.672.673H4.568a.674.674 0 01-.672-.673c0-.37.302-.672.672-.672h11.476z" fill="#5CB615" fill-rule="nonzero"/></svg>
